packages/core/src/svgs/foam.svg

<svg width="24" height="24" viewBox="0 0 24 24" fill="none" xmlns="http://www.w3.org/2000/svg">
<g clip-path="url(#clip0_31_10390)">
<path d="M0 0H24V24H0V0Z" fill="#F0F3FA"/>
<path d="M10.2856 14.1355V13.251L11.3811 13.8634L10.5719 14.2975L10.2856 14.1355Z" fill="url(#paint0_linear_31_10390)"/>
<path d="M13.7142 14.1355V13.251L12.6213 13.8634L13.4335 14.2975L13.7142 14.1355Z" fill="#493636"/>
<path d="M15.4329 11.6182L13.7144 12.5336L15.4329 13.473L17.1429 12.5336L15.4329 11.6182Z" fill="url(#paint1_linear_31_10390)"/>
<path d="M10.5497 9.65883L10.2844 9.51611V9.80154L10.5501 9.65883H10.5497Z" fill="#83615B"/>
<path d="M17.1428 11.3129V7.9126L15.4285 8.79674V12.2802L17.1428 11.3129Z" fill="#6F5655"/>
<path d="M13.7143 9.50768V6.05811L12 6.99925V10.475L13.7143 9.50768Z" fill="url(#paint2_linear_31_10390)"/>
<path d="M13.4221 9.65126L13.7144 9.50684V9.80169L13.4221 9.65126Z" fill="#654A48"/>
<path d="M13.4302 14.2793L13.7143 14.1255V14.4405L13.4302 14.2793Z" fill="#684B49"/>
<path d="M10.5762 14.2793L10.2856 14.1255V14.4405L10.5762 14.2793Z" fill="#7A5D59"/>
<path d="M8.57618 6.99805L6.85718 7.91348L8.57618 8.85333L10.287 7.91348L8.57618 6.99805Z" fill="#7D6563"/>
<path d="M10.2856 9.51999V6.05713L11.9999 6.99441V10.4873L10.2856 9.51999Z" fill="url(#paint3_linear_31_10390)"/>
<path d="M13.7144 11.3239V7.91162L15.4286 8.83648V12.2809L13.7144 11.3239Z" fill="url(#paint4_linear_31_10390)"/>
<path d="M13.7144 15.9868V12.5312L15.4286 13.4488V16.9622L13.7144 15.9868Z" fill="url(#paint5_linear_31_10390)"/>
<path d="M12.0042 5.14307L10.2856 6.05849L12.0042 6.99835L13.7142 6.05849L12.0042 5.14307ZM15.4328 6.99835L13.7142 7.91378L15.4328 8.85364L17.1428 7.91378L15.4328 6.99835Z" fill="#7D6563"/>
<path d="M8.57575 11.6182L6.85718 12.5336L8.57575 13.473L10.2857 12.5336L8.57575 11.6182Z" fill="url(#paint6_linear_31_10390)"/>
<path d="M12.0042 13.5127L10.2856 14.4281L12.0042 15.368L13.7142 14.4281L12.0042 13.5127Z" fill="url(#paint7_linear_31_10390)"/>
<path d="M6.85718 15.9887V12.5322L8.57146 13.4567V16.9624L6.85718 15.9887Z" fill="url(#paint8_linear_31_10390)"/>
<path d="M12.0042 8.88232L10.2856 9.79775L12.0042 10.7376L13.7142 9.79775L12.0042 8.88232Z" fill="#7D6563"/>
<path d="M10.2856 17.8846V14.417L11.9999 15.3556V18.857L10.2856 17.8846Z" fill="url(#paint9_linear_31_10390)"/>
<path d="M17.1445 15.9869V12.5283L15.4302 13.4489V16.9623L17.1445 15.9869Z" fill="#6E5453"/>
<path d="M13.7143 13.2561V9.79541L12 10.7318V14.2268L13.7143 13.2561Z" fill="#725857"/>
<path d="M13.7143 17.8846V14.417L12 15.3556V18.857L13.7143 17.8846Z" fill="#705554"/>
<path d="M10.2858 15.9886V12.5317L8.57153 13.4562V16.9619L10.2858 15.9886Z" fill="url(#paint10_linear_31_10390)"/>
<path d="M10.2858 11.3649V7.91357L8.57153 8.835V12.3373L10.2858 11.3649Z" fill="url(#paint11_linear_31_10390)"/>
<path d="M6.8584 11.3649V7.91357L8.57268 8.835V12.3373L6.8584 11.3649Z" fill="url(#paint12_linear_31_10390)"/>
<path d="M10.2856 13.2576V9.79736L11.9999 10.7321V14.2275L10.2856 13.2576Z" fill="url(#paint13_linear_31_10390)"/>
</g>
<defs>
<linearGradient id="paint0_linear_31_10390" x1="10.2925" y1="13.7743" x2="11.3819" y2="13.9564" gradientUnits="userSpaceOnUse">
<stop stop-color="#6C5E5D"/>
<stop offset="1" stop-color="#684440"/>
</linearGradient>
<linearGradient id="paint1_linear_31_10390" x1="15.4286" y1="11.6182" x2="15.4286" y2="13.4735" gradientUnits="userSpaceOnUse">
<stop offset="0.491" stop-color="#533534"/>
<stop offset="1" stop-color="#3C3133"/>
</linearGradient>
<linearGradient id="paint2_linear_31_10390" x1="12" y1="8.49882" x2="13.7156" y2="7.78053" gradientUnits="userSpaceOnUse">
<stop stop-color="#543D3D"/>
<stop offset="0.77" stop-color="#4C3939"/>
</linearGradient>
<linearGradient id="paint3_linear_31_10390" x1="11.9999" y1="8.27884" x2="10.2856" y2="8.02813" gradientUnits="userSpaceOnUse">
<stop stop-color="#966761"/>
<stop offset="0.768" stop-color="#6A5D5C"/>
</linearGradient>
<linearGradient id="paint4_linear_31_10390" x1="15.4286" y1="10.0969" x2="13.7152" y2="9.84319" gradientUnits="userSpaceOnUse">
<stop stop-color="#966761"/>
<stop offset="0.768" stop-color="#6A5D5C"/>
</linearGradient>
<linearGradient id="paint5_linear_31_10390" x1="15.4286" y1="14.735" x2="13.7135" y2="14.486" gradientUnits="userSpaceOnUse">
<stop stop-color="#966761"/>
<stop offset="0.768" stop-color="#6A5D5C"/>
</linearGradient>
<linearGradient id="paint6_linear_31_10390" x1="8.57146" y1="11.6182" x2="8.57146" y2="13.4735" gradientUnits="userSpaceOnUse">
<stop offset="0.491" stop-color="#533534"/>
<stop offset="1" stop-color="#3C3133"/>
</linearGradient>
<linearGradient id="paint7_linear_31_10390" x1="11.9999" y1="13.5127" x2="11.9999" y2="15.368" gradientUnits="userSpaceOnUse">
<stop offset="0.491" stop-color="#533534"/>
<stop offset="1" stop-color="#3C3133"/>
</linearGradient>
<linearGradient id="paint8_linear_31_10390" x1="8.57146" y1="13.4044" x2="6.83704" y2="15.9115" gradientUnits="userSpaceOnUse">
<stop stop-color="#C79890"/>
<stop offset="0.563" stop-color="#C89B94"/>
</linearGradient>
<linearGradient id="paint9_linear_31_10390" x1="11.9999" y1="15.3354" x2="10.2681" y2="17.8413" gradientUnits="userSpaceOnUse">
<stop stop-color="#DB9E94"/>
<stop offset="0.453" stop-color="#CF9991"/>
</linearGradient>
<linearGradient id="paint10_linear_31_10390" x1="8.57153" y1="14.9733" x2="10.2901" y2="14.2585" gradientUnits="userSpaceOnUse">
<stop stop-color="#543D3D"/>
<stop offset="0.77" stop-color="#4C3939"/>
</linearGradient>
<linearGradient id="paint11_linear_31_10390" x1="8.57153" y1="10.3504" x2="10.2897" y2="9.63515" gradientUnits="userSpaceOnUse">
<stop stop-color="#543D3D"/>
<stop offset="0.77" stop-color="#4C3939"/>
</linearGradient>
<linearGradient id="paint12_linear_31_10390" x1="8.57268" y1="8.93143" x2="6.84126" y2="11.3421" gradientUnits="userSpaceOnUse">
<stop stop-color="#DBA096"/>
<stop offset="0.518" stop-color="#BC938D"/>
</linearGradient>
<linearGradient id="paint13_linear_31_10390" x1="11.9999" y1="10.7449" x2="10.2758" y2="13.2885" gradientUnits="userSpaceOnUse">
<stop stop-color="#FABDAE"/>
<stop offset="0.516" stop-color="#DAA095"/>
</linearGradient>
<clipPath id="clip0_31_10390">
<rect width="24" height="24" fill="white"/>
</clipPath>
</defs>
</svg>

<svg xmlns="http://www.w3.org/2000/svg" width="24" height="24" fill="none" viewBox="0 0 24 24"><g clip-path="url(#a)"><path fill="#F0F3FA" d="M0 0h24v24H0z"/><path fill="url(#b)" d="M10.286 14.136v-.885l1.095.612-.81.434z"/><path fill="#493636" d="M13.714 14.136v-.885l-1.093.612.813.434z"/><path fill="url(#c)" d="m15.433 11.618-1.719.916 1.719.939 1.71-.94z"/><path fill="#83615B" d="m10.55 9.659-.266-.143v.286z"/><path fill="#6F5655" d="M17.143 11.313v-3.4l-1.715.884v3.483z"/><path fill="url(#d)" d="M13.714 9.508v-3.45L12 7v3.476z"/><path fill="#654A48" d="m13.422 9.651.292-.144v.295z"/><path fill="#684B49" d="m13.43 14.28.284-.154v.315z"/><path fill="#7A5D59" d="m10.576 14.28-.29-.154v.315z"/><path fill="#7D6563" d="m8.576 6.998-1.719.915 1.72.94 1.71-.94z"/><path fill="url(#e)" d="M10.286 9.52V6.057L12 6.994v3.493z"/><path fill="url(#f)" d="M13.714 11.324V7.912l1.715.924v3.445z"/><path fill="url(#g)" d="M13.714 15.987V12.53l1.715.918v3.513z"/><path fill="#7D6563" d="m12.004 5.143-1.718.915 1.718.94 1.71-.94zm3.429 1.855-1.719.916 1.719.94 1.71-.94z"/><path fill="url(#h)" d="m8.576 11.618-1.719.916 1.719.939 1.71-.94z"/><path fill="url(#i)" d="m12.004 13.513-1.718.915 1.718.94 1.71-.94z"/><path fill="url(#j)" d="M6.857 15.989v-3.457l1.714.925v3.505z"/><path fill="#7D6563" d="m12.004 8.882-1.718.916 1.718.94 1.71-.94z"/><path fill="url(#k)" d="M10.286 17.885v-3.468l1.714.939v3.501z"/><path fill="#6E5453" d="M17.145 15.987v-3.459l-1.715.92v3.514z"/><path fill="#725857" d="M13.714 13.256v-3.46L12 10.731v3.495z"/><path fill="#705554" d="M13.714 17.885v-3.468L12 15.356v3.501z"/><path fill="url(#l)" d="M10.286 15.989v-3.457l-1.714.924v3.506z"/><path fill="url(#m)" d="M10.286 11.365V7.914l-1.714.921v3.502z"/><path fill="url(#n)" d="M6.858 11.365V7.914l1.715.921v3.502z"/><path fill="url(#o)" d="M10.286 13.258v-3.46l1.714.934v3.496z"/></g><defs><linearGradient id="b" x1="10.293" x2="11.382" y1="13.774" y2="13.956" gradientUnits="userSpaceOnUse"><stop stop-color="#6C5E5D"/><stop offset="1" stop-color="#684440"/></linearGradient><linearGradient id="c" x1="15.429" x2="15.429" y1="11.618" y2="13.473" gradientUnits="userSpaceOnUse"><stop offset=".491" stop-color="#533534"/><stop offset="1" stop-color="#3C3133"/></linearGradient><linearGradient id="d" x1="12" x2="13.716" y1="8.499" y2="7.781" gradientUnits="userSpaceOnUse"><stop stop-color="#543D3D"/><stop offset=".77" stop-color="#4C3939"/></linearGradient><linearGradient id="e" x1="12" x2="10.286" y1="8.279" y2="8.028" gradientUnits="userSpaceOnUse"><stop stop-color="#966761"/><stop offset=".768" stop-color="#6A5D5C"/></linearGradient><linearGradient id="f" x1="15.429" x2="13.715" y1="10.097" y2="9.843" gradientUnits="userSpaceOnUse"><stop stop-color="#966761"/><stop offset=".768" stop-color="#6A5D5C"/></linearGradient><linearGradient id="g" x1="15.429" x2="13.713" y1="14.735" y2="14.486" gradientUnits="userSpaceOnUse"><stop stop-color="#966761"/><stop offset=".768" stop-color="#6A5D5C"/></linearGradient><linearGradient id="h" x1="8.571" x2="8.571" y1="11.618" y2="13.473" gradientUnits="userSpaceOnUse"><stop offset=".491" stop-color="#533534"/><stop offset="1" stop-color="#3C3133"/></linearGradient><linearGradient id="i" x1="12" x2="12" y1="13.513" y2="15.368" gradientUnits="userSpaceOnUse"><stop offset=".491" stop-color="#533534"/><stop offset="1" stop-color="#3C3133"/></linearGradient><linearGradient id="j" x1="8.571" x2="6.837" y1="13.404" y2="15.912" gradientUnits="userSpaceOnUse"><stop stop-color="#C79890"/><stop offset=".563" stop-color="#C89B94"/></linearGradient><linearGradient id="k" x1="12" x2="10.268" y1="15.335" y2="17.841" gradientUnits="userSpaceOnUse"><stop stop-color="#DB9E94"/><stop offset=".453" stop-color="#CF9991"/></linearGradient><linearGradient id="l" x1="8.572" x2="10.29" y1="14.973" y2="14.258" gradientUnits="userSpaceOnUse"><stop stop-color="#543D3D"/><stop offset=".77" stop-color="#4C3939"/></linearGradient><linearGradient id="m" x1="8.572" x2="10.29" y1="10.35" y2="9.635" gradientUnits="userSpaceOnUse"><stop stop-color="#543D3D"/><stop offset=".77" stop-color="#4C3939"/></linearGradient><linearGradient id="n" x1="8.573" x2="6.841" y1="8.931" y2="11.342" gradientUnits="userSpaceOnUse"><stop stop-color="#DBA096"/><stop offset=".518" stop-color="#BC938D"/></linearGradient><linearGradient id="o" x1="12" x2="10.276" y1="10.745" y2="13.289" gradientUnits="userSpaceOnUse"><stop stop-color="#FABDAE"/><stop offset=".516" stop-color="#DAA095"/></linearGradient><clipPath id="a"><path fill="#fff" d="M0 0h24v24H0z"/></clipPath></defs></svg>
